assets/icons/utility/tabset.svg

<?xml version="1.0"?><svg xmlns="http://www.w3.org/2000/svg" width="52" height="52" viewBox="0 0 52 52"><path fill="#fff" d="m31.6 2h-11.2c-0.7 0-1.2 0.6-1.2 1.3v2.5c0 0.7 0.6 1.3 1.2 1.3h11.2c0.7 0 1.2-0.6 1.2-1.3v-2.5c0.1-0.7-0.5-1.3-1.2-1.3z m17.1 0h-11.2c-0.7 0-1.3 0.6-1.3 1.3v2.5c0 0.7 0.6 1.3 1.3 1.3h11.2c0.7-0.1 1.3-0.6 1.3-1.3v-2.5c0-0.7-0.6-1.3-1.3-1.3z m0 8.4h-31.7c-0.7 0-1.3-0.6-1.3-1.3v-5.8c0-0.7-0.6-1.3-1.3-1.3h-11.1c-0.7 0-1.3 0.6-1.3 1.3v45.5c0 0.6 0.6 1.2 1.3 1.2h45.4c0.7 0 1.3-0.6 1.3-1.3v-37c0-0.7-0.6-1.3-1.3-1.3z"></path></svg>

<svg xmlns="http://www.w3.org/2000/svg" x="0px" y="0px"
	 width="52px" height="52px" viewBox="0 0 52 52" enable-background="new 0 0 52 52" xml:space="preserve">
<g>
	<path fill="#FFFFFF" d="M31.6,2H20.4c-0.7,0-1.2,0.6-1.2,1.3v2.5c0,0.7,0.6,1.3,1.2,1.3h11.2c0.7,0,1.2-0.6,1.2-1.3V3.3
		C32.9,2.6,32.3,2,31.6,2z"/>
</g>
<g>
	<path fill="#FFFFFF" d="M48.7,2H37.5c-0.7,0-1.3,0.6-1.3,1.3v2.5c0,0.7,0.6,1.3,1.3,1.3h11.2C49.4,7,50,6.5,50,5.8V3.3
		C50,2.6,49.4,2,48.7,2z"/>
</g>
<g>
	<path fill="#FFFFFF" d="M48.7,10.4H17c-0.7,0-1.3-0.6-1.3-1.3V3.3c0-0.7-0.6-1.3-1.3-1.3H3.3C2.6,2,2,2.6,2,3.3v45.5
		C2,49.4,2.6,50,3.3,50h1.7H7h41.7c0.7,0,1.3-0.6,1.3-1.3V11.7C50,11,49.4,10.4,48.7,10.4z"/>
</g>
</svg>
